icons/underpants.svg

<svg xmlns="http://www.w3.org/2000/svg" viewBox="0 0 24 24" fill="currentColor">
  <path d="M7 3.75C5.21421 3.75 3.75 5.21421 3.75 7v6c0 .0978.0019.1951.00567.292.20747-.0258.42443-.042.64437-.042 2.91421 0 5.25 2.3358 5.25 5.25 0 .5761-.08962 1.1079-.2401 1.5936.48009.1025.97846.1564 1.49006.1564H13c.5104 0 1.009-.0535 1.4904-.1553-.1506-.486-.2404-1.0182-.2404-1.5947 0-2.9142 2.3358-5.25 5.25-5.25.2553 0 .5065.0218.7436.0551.0043-.1012.0064-.2029.0064-.3051V7c0-1.78579-1.4642-3.25-3.25-3.25H7Zm13.0249 11.0391c-.1751-.0243-.3519-.0391-.5249-.0391-2.0858 0-3.75 1.6642-3.75 3.75 0 .4085.0619.7855.1677 1.1328 2.0126-.8928 3.5516-2.6773 4.1072-4.8437ZM7.98449 19.6257c-1.98388-.8956-3.48212-2.6786-4.01902-4.8482.14539-.0173.2913-.0275.43457-.0275 2.08579 0 3.75 1.6642 3.75 3.75 0 .4057-.06104.7804-.16555 1.1257ZM2.25 7c0-2.61421 2.13579-4.75 4.75-4.75h10c2.6142 0 4.75 2.13579 4.75 4.75v6c0 4.8142-3.9358 8.75-8.75 8.75h-2.1c-4.82643 0-8.65-3.9481-8.65-8.75V7Z"/>
</svg>

<svg width="24" height="24" viewBox="0 0 24 24" fill="none" xmlns="http://www.w3.org/2000/svg">
<path fill-rule="evenodd" clip-rule="evenodd" d="M7 3.75C5.21421 3.75 3.75 5.21421 3.75 7V13C3.75 13.0978 3.7519 13.1951 3.75567 13.292C3.96314 13.2662 4.1801 13.25 4.40004 13.25C7.31425 13.25 9.65004 15.5858 9.65004 18.5C9.65004 19.0761 9.56042 19.6079 9.40994 20.0936C9.89003 20.1961 10.3884 20.25 10.9 20.25H13C13.5104 20.25 14.009 20.1965 14.4904 20.0947C14.3398 19.6087 14.25 19.0765 14.25 18.5C14.25 15.5858 16.5858 13.25 19.5 13.25C19.7553 13.25 20.0065 13.2718 20.2436 13.3051C20.2479 13.2039 20.25 13.1022 20.25 13V7C20.25 5.21421 18.7858 3.75 17 3.75H7ZM20.0249 14.7891C19.8498 14.7648 19.673 14.75 19.5 14.75C17.4142 14.75 15.75 16.4142 15.75 18.5C15.75 18.9085 15.8119 19.2855 15.9177 19.6328C17.9303 18.74 19.4693 16.9555 20.0249 14.7891ZM7.98449 19.6257C6.00061 18.7301 4.50237 16.9471 3.96547 14.7775C4.11086 14.7602 4.25677 14.75 4.40004 14.75C6.48583 14.75 8.15004 16.4142 8.15004 18.5C8.15004 18.9057 8.089 19.2804 7.98449 19.6257ZM2.25 7C2.25 4.38579 4.38579 2.25 7 2.25H17C19.6142 2.25 21.75 4.38579 21.75 7V13C21.75 17.8142 17.8142 21.75 13 21.75H10.9C6.07357 21.75 2.25 17.8019 2.25 13V7Z" fill="black"/>
</svg>
